logos/udacity.svg

<?xml version="1.0" encoding="UTF-8"?>
<svg width="512px" height="97px" viewBox="0 0 512 97" version="1.1" xmlns="http://www.w3.org/2000/svg" xmlns:xlink="http://www.w3.org/1999/xlink" preserveAspectRatio="xMidYMid">
    <title>Udacity</title>
    <g>
        <path d="M7.41760555,22.5288847 L31.8361838,8.34242577 L31.8509038,48.1254565 C31.8054638,62.8697344 42.1497914,76.0961067 56.4467622,79.5756238 L56.7667625,79.6533998 L56.5626024,79.9109529 C56.2387623,80.3355331 55.9277218,80.7416255 55.5443616,81.1222175 C54.2502806,82.4029704 52.8262796,83.5657845 51.3133186,84.5775094 C49.7881974,85.5968842 48.1593962,86.4721821 46.4710749,87.1772656 L46.4710749,87.177903 C44.7507535,87.8957369 42.9529922,88.4452685 41.1296309,88.811198 C39.2051495,89.1968901 37.5411482,89.3709298 35.7593868,89.3709298 C35.7024267,89.3709298 35.6441867,89.3709298 35.5865866,89.3709298 C33.6467452,89.3639169 31.7139438,89.1643772 29.8425823,88.7761349 C28.021141,88.4000055 26.2272196,87.8389986 24.5107384,87.1096899 C22.8307371,86.3963187 21.2064159,85.5120954 19.6838547,84.4812456 C18.1747336,83.4580458 16.7590526,82.2869441 15.4758516,80.999816 C14.1875306,79.7095003 13.0195297,78.2916833 12.006409,76.7865277 C10.9824082,75.2667091 10.1043276,73.644252 9.39648703,71.9631445 C8.67712651,70.2565363 8.1254461,68.4664146 7.75680581,66.6425053 C7.35872552,64.6751563 7.31072547,62.6427818 7.31648547,60.9144985 L7.31264549,22.5900854 L7.41760555,22.5288847 Z M68.8557317,72.6637653 C70.2675725,68.6933672 70.9894933,64.8083954 71.0010132,61.1178632 L71.0010132,19.1029183 L89.512387,8.51455288 L89.512387,48.3020461 C89.5072669,50.1061929 89.3389468,51.815351 89.0125467,53.3804325 C88.6759065,54.9952393 88.1760659,56.5807211 87.5283855,58.0928894 C86.8896652,59.5833822 86.1011844,61.0190496 85.1853439,62.3597283 C84.276543,63.691482 83.2333423,64.9435469 82.0845416,66.0814984 C80.9338205,67.2200871 79.6704597,68.252212 78.3290185,69.1479102 C76.9786176,70.0518964 75.5309365,70.8290181 74.0256555,71.4576007 C72.5069341,72.1110461 71.0906131,72.5445514 69.292212,72.9053808 C69.2314119,72.9174934 69.1629319,72.9296061 69.0918916,72.9417187 L68.7354116,73.0041944 L68.8557317,72.6637653 Z M-1.90393558e-14,18.6828007 L0.017280013,60.8947356 C-0.0416000311,80.4483719 15.8803319,96.4045522 35.5091466,96.464478 L35.6166667,96.464478 C41.8534713,96.464478 47.9904358,94.8337332 53.3638801,91.7513834 L79.3261395,76.8910787 C90.0903076,71.3288244 96.7949525,60.382817 96.8314326,48.3211713 L96.8352726,4.23432616 C96.8352726,4.10873714 96.7674324,3.99143571 96.6586323,3.92832246 L96.6586323,3.92768494 L90.2989478,0.223127695 C90.1901476,0.159376925 90.0538274,0.159376925 89.9437472,0.220577665 L63.859888,14.8845298 C63.7478877,14.9470056 63.6787678,15.065582 63.6787678,15.193721 L63.7011678,61.0885378 C63.6960477,63.0182737 63.4957277,64.9435469 63.1053271,66.8114445 C62.7264471,68.6283417 62.1645267,70.414638 61.4336459,72.1218836 C61.2966858,72.4400003 61.1539658,72.7562041 61.0054858,73.0692203 L60.9395656,73.2081969 L60.7866054,73.1884343 C60.3456452,73.1310583 60.0550851,73.0768703 59.2794043,72.9315186 L59.0739642,72.8926308 C57.441323,72.5579391 54.1171605,71.6157028 50.1549175,69.0656719 C48.8128365,68.156586 47.5552356,67.1168108 46.4147547,65.9724846 C45.2710741,64.8268832 44.2349131,63.5684431 43.3357125,62.2328644 C42.4256319,60.8819855 41.6461112,59.4418554 41.0189108,57.952 C40.3801902,56.4353694 39.89123,54.8460626 39.5641897,53.2312554 C39.2723494,51.7892132 39.1507492,50.2936199 39.1577893,48.2312827 L39.1577893,4.19990075 C39.1577893,4.07494921 39.0937891,3.96083535 38.9862691,3.89517205 L32.6336244,0.051638124 C32.5766644,0.0172127079 32.5126644,0 32.4480243,0 C32.3872242,0 32.3257842,0.0159376925 32.2713842,0.0471755699 L0.178560134,18.3748845 C0.0691200519,18.4379977 -1.90393558e-14,18.5559367 -1.90393558e-14,18.6828007 L-1.90393558e-14,18.6828007 Z" fill="#2015FF"></path>
        <path d="M345.262338,23.0459034 C355.96834,23.0459034 361.790456,28.335279 362.772602,29.3109387 L362.8505,29.3894759 C362.882361,29.4221325 362.90359,29.4446514 362.914192,29.4560434 L362.914192,29.4560434 L363.618192,30.2076649 L359.722507,35.5499795 L358.686349,34.5682176 C358.635148,34.5204045 353.511944,29.7760722 345.394178,29.7760722 C335.38521,29.7760722 327.837045,37.5625913 327.837045,47.887666 C327.837045,58.6277581 335.44217,66.7260186 345.526658,66.7260186 C354.190984,66.7260186 359.630988,60.9980119 359.68475,60.9399985 L359.68475,60.9399985 L360.663947,59.883011 L364.896913,65.0417232 L364.19611,65.8360579 C363.921553,66.1471616 357.342347,73.4561875 345.461378,73.4561875 C331.269367,73.4561875 320.567279,62.4929674 320.567279,47.9546044 C320.567279,33.7541203 331.183607,23.0459034 345.262338,23.0459034 Z M184.847625,23.6434394 L184.842505,53.5731508 C184.842505,65.0833523 175.686019,73.4372535 163.070329,73.4372535 C150.56344,73.4372535 141.486313,65.0833523 141.486313,53.5731508 L141.486313,53.5731508 L141.486313,23.6606521 L148.792558,23.6606521 L148.792558,53.5062127 C148.792558,61.0530288 154.931443,66.7440599 163.070329,66.7440599 C171.181055,66.7440599 177.53434,60.9293525 177.53434,53.5062127 L177.53434,53.5062127 L177.53434,23.6434394 L184.847625,23.6434394 Z M287.311702,23.6660709 L287.341142,23.7387468 L307.277797,72.8351272 L299.561951,72.8351272 L299.532511,72.7624514 L293.426907,57.7835706 L272.780491,61.9866587 L268.358728,72.8351272 L260.642882,72.8351272 L280.608977,23.6660709 L287.311702,23.6660709 Z M206.876826,23.6419094 L223.131558,23.6667722 C238.076849,23.6680472 247.733176,33.3039761 247.733176,48.2165563 C247.733176,63.1629241 238.037809,72.8205283 223.034278,72.8205283 L223.034278,72.8205283 L206.760346,72.8205283 L206.760346,23.6419094 L206.876826,23.6419094 Z M454.485075,23.6431206 L454.485075,30.3299389 L437.663303,30.3299389 L437.658184,72.8185523 L430.350019,72.8204647 L430.350019,30.3299389 L413.527604,30.3299389 L413.527604,23.6431206 L454.485075,23.6431206 Z M475.061091,23.6432481 L475.096933,23.6929737 L489.525101,44.2953101 L503.847673,23.6432481 L512,23.6432481 L511.880317,23.8236628 L493.194864,51.8720892 L493.194864,72.8205923 L485.881579,72.8205923 L485.881579,51.8765516 L466.830046,23.6432481 L475.061091,23.6432481 Z M394.082023,23.6479657 L394.082023,72.8157473 L386.768738,72.8157473 L386.768738,23.6479657 L394.082023,23.6479657 Z M222.666278,30.3300026 L214.073631,30.3300026 L214.073631,66.1375353 L222.666278,66.1617606 C233.809966,66.1617606 240.463411,59.4532671 240.463411,48.2165563 C240.463411,37.0161833 233.809966,30.3300026 222.666278,30.3300026 L222.666278,30.3300026 Z M283.96002,34.561715 L276.085454,53.8781984 L290.627545,50.9176127 L283.96002,34.561715 Z" fill="#0B0B0B"></path>
    </g>
</svg>

<svg width="512" height="97" xmlns="http://www.w3.org/2000/svg" preserveAspectRatio="xMidYMid">
	<path d="M7.418 22.529 31.836 8.342l.015 39.783c-.046 14.745 10.299 27.971 24.596 31.45l.32.078-.204.258c-.324.425-.635.83-1.019 1.211a28.745 28.745 0 0 1-4.23 3.456 28.5 28.5 0 0 1-4.843 2.6 28.432 28.432 0 0 1-5.341 1.633c-1.925.386-3.589.56-5.37.56h-.173a28.85 28.85 0 0 1-5.744-.595 28.304 28.304 0 0 1-10.16-4.295 28.688 28.688 0 0 1-7.677-7.694 28.322 28.322 0 0 1-2.61-4.824 28.017 28.017 0 0 1-1.64-5.32c-.397-1.968-.445-4-.44-5.729L7.313 22.59l.105-.061Zm61.438 50.135c1.412-3.97 2.133-7.856 2.145-11.546V19.103L89.512 8.515v39.787c-.005 1.804-.173 3.513-.5 5.078a24.906 24.906 0 0 1-3.827 8.98 25.418 25.418 0 0 1-6.856 6.788 25.229 25.229 0 0 1-4.303 2.31c-1.52.653-2.935 1.087-4.734 1.447a7.55 7.55 0 0 1-.2.037l-.357.062.12-.34ZM0 18.683l.017 42.212c-.059 19.553 15.863 35.51 35.492 35.57h.108c6.236 0 12.373-1.631 17.747-4.714l25.962-14.86c10.764-5.562 17.469-16.508 17.505-28.57l.004-44.087a.355.355 0 0 0-.176-.306L90.299.223a.36.36 0 0 0-.355-.002L63.86 14.885a.354.354 0 0 0-.181.309l.022 45.895a28.397 28.397 0 0 1-.596 5.722 28.093 28.093 0 0 1-2.1 6.258l-.065.14-.153-.02c-.441-.058-.732-.112-1.508-.257l-.205-.04c-1.633-.334-4.957-1.276-8.92-3.826a25.407 25.407 0 0 1-6.818-6.833 24.953 24.953 0 0 1-3.772-9.002c-.292-1.442-.413-2.937-.406-5V4.2a.355.355 0 0 0-.172-.305L32.634.052a.358.358 0 0 0-.363-.005L.18 18.375a.357.357 0 0 0-.179.308Z" fill="#2015FF"/>
	<path d="M345.262 23.046c10.706 0 16.528 5.29 17.51 6.265l.079.078.063.067.704.752-3.895 5.342-1.037-.982c-.05-.048-5.174-4.792-13.292-4.792-10.009 0-17.557 7.787-17.557 18.112 0 10.74 7.605 18.838 17.69 18.838 8.664 0 14.104-5.728 14.158-5.786l.979-1.057 4.233 5.159-.7.794c-.275.311-6.855 7.62-18.736 7.62-14.192 0-24.894-10.963-24.894-25.501 0-14.2 10.617-24.91 24.695-24.91Zm-160.414.597-.005 29.93c0 11.51-9.157 19.864-21.773 19.864-12.507 0-21.584-8.354-21.584-19.864V23.661h7.307v29.845c0 7.547 6.138 13.238 14.277 13.238 8.111 0 14.464-5.815 14.464-13.238V23.643h7.314Zm102.464.023.03.073 19.936 49.096h-7.716l-.03-.073-6.105-14.978-20.647 4.203-4.421 10.848h-7.716l19.966-49.169h6.703Zm-80.435-.024 16.255.025c14.945.001 24.601 9.637 24.601 24.55 0 14.946-9.695 24.604-24.699 24.604H206.76V23.64h.117Zm247.608.001v6.687h-16.822l-.005 42.489-7.308.001V30.33h-16.822v-6.687h40.957Zm20.576 0 .036.05 14.428 20.602 14.323-20.652H512l-.12.18-18.685 28.05V72.82h-7.313V51.877L466.83 23.643h8.231Zm-80.979.005v49.168h-7.313V23.648h7.313ZM222.666 30.33h-8.592v35.808l8.592.024c11.144 0 17.797-6.709 17.797-17.945 0-11.2-6.653-17.887-17.797-17.887Zm61.294 4.232-7.875 19.316 14.543-2.96-6.668-16.356Z" fill="#0B0B0B"/>
</svg>
